static/images/immudb/runs-on/windows.svg

<svg width="80" height="80" viewBox="0 0 80 80" fill="none" xmlns="http://www.w3.org/2000/svg">
<path d="M36.5552 6.28166C50.9422 4.07295 65.3698 2.00608 79.7974 0C79.7974 12.6444 79.7974 25.2685 79.7974 37.9129C65.3901 37.9737 50.9828 38.1966 36.5552 38.2371C36.535 27.5785 36.535 16.92 36.5552 6.28166Z" fill="#3173B9"/>
<path d="M0 11.3678C10.8409 9.70618 21.7224 8.26748 32.6038 6.88956C32.6038 17.3658 32.6039 27.8419 32.6241 38.3181C21.7427 38.3181 10.8815 38.4802 0 38.4397V11.3678Z" fill="#3173B9"/>
<path d="M0 41.7629C10.8612 41.7224 21.7224 41.9048 32.6038 41.8845C32.6038 52.4012 32.6241 62.8977 32.6038 73.4144C21.7427 71.7933 10.8815 70.3951 0 68.9159V41.7629Z" fill="#3173B9"/>
<path d="M36.4944 42.1884C50.9422 42.1884 65.3698 42.1884 79.7974 42.1884C79.8176 54.7923 79.7974 67.3961 79.7974 80C65.4103 77.8521 50.9828 75.846 36.5552 73.8804C36.535 63.3232 36.5147 52.7457 36.4944 42.1884Z" fill="#3173B9"/>
</svg>

<svg xmlns="http://www.w3.org/2000/svg" width="80" height="80" fill="#3173b9" xmlns:v="https://vecta.io/nano"><path d="M36.555 6.282L79.797 0v37.913l-43.242.324V6.282zM0 11.368c10.841-1.662 21.722-3.1 32.604-4.478l.02 31.429L0 38.44V11.368zm0 30.395l32.604.122v31.53L0 68.916V41.763zm36.494.425h43.303V80l-43.242-6.12-.061-31.692z"/></svg>
